X: 18777
T: If Music Be The Voice Of Love
R: jig
M: 6/8
K: Dmajor
A|Adc dAB|A2G F2A|Bcd efd|egf e2c|Aag f2d|
Bgf e2c|ABc B2^G|A3 A2c|e2d cBA|BGB dcB|
ced Bdc|A3 A2c|dAB A2F|GeG F2A|Bcd e2c|d3d2||

